;FLAVOR:Marlin
;TIME:9264
;Filament used: 10.716m
;Layer height: 0.2
;Generated with Cura_SteamEngine 4.0.0
M104 S205
M105
M109 S205
M82 ;absolute extrusion mode
G28 ;Home
G1 Z15.0 F6000 ;Move the platform down 15mm
;Prime the extruder
G92 E0
G1 F200 E3
G92 E0
G92 E0
G1 F4200 E-7
;LAYER_COUNT:101
;LAYER:0
M107
G0 F2400 X23.483 Y15.916 Z0.15
;TYPE:SKIRT
G1 F4200 E0
G1 F3000 X23.892 Y15.309 E0.01826
G1 X25.412 Y13.467 E0.07783
G1 X25.925 Y12.955 E0.09591
G1 X27.769 Y11.434 E0.15554
G1 X28.374 Y11.025 E0.17376
G1 X30.494 Y9.874 E0.23393
G1 X31.18 Y9.585 E0.2525
G1 X33.515 Y8.86 E0.31349
G1 X34.262 Y8.708 E0.33251
G1 X36.776 Y8.455 E0.39553
G1 X37.156 Y8.436 E0.40503
G1 X162.844 Y8.436 E3.54032
G1 X163.225 Y8.455 E3.54984
G1 X165.738 Y8.708 E3.61284
G1 X166.483 Y8.86 E3.63181
G1 X168.819 Y9.585 E3.69283
G1 X169.506 Y9.874 E3.71142
G1 X171.626 Y11.025 E3.77159
G1 X172.231 Y11.433 E3.7898
G1 X174.073 Y12.952 E3.84935
G1 X174.586 Y13.465 E3.86745
G1 X176.108 Y15.309 E3.92709
G1 X176.517 Y15.916 E3.94535
G1 X177.667 Y18.036 E4.00551
G1 X177.956 Y18.72 E4.02404
G1 X178.682 Y21.055 E4.08504
G1 X178.834 Y21.802 E4.10405
G1 X179.087 Y24.315 E4.16705
G1 X179.106 Y24.696 E4.17657
G1 X179.106 Y41.133 E4.58659
G1 X179.087 Y41.513 E4.59608
G1 X178.834 Y44.027 E4.65911
G1 X178.682 Y44.775 E4.67815
G1 X177.956 Y47.111 E4.73917
G1 X177.667 Y47.795 E4.7577
G1 X176.517 Y49.915 E4.81786
G1 X176.108 Y50.522 E4.83612
G1 X174.588 Y52.364 E4.89569
G1 X174.075 Y52.876 E4.91377
G1 X172.231 Y54.397 E4.9734
G1 X171.626 Y54.806 E4.99162
G1 X169.506 Y55.957 E5.05179
G1 X168.819 Y56.246 E5.07038
G1 X166.483 Y56.971 E5.1314
G1 X165.738 Y57.123 E5.15036
G1 X163.225 Y57.376 E5.21337
G1 X162.844 Y57.395 E5.22288
G1 X37.156 Y57.395 E8.35818
G1 X36.776 Y57.376 E8.36767
G1 X34.262 Y57.123 E8.4307
G1 X33.515 Y56.971 E8.44972
G1 X31.18 Y56.246 E8.51071
G1 X30.494 Y55.957 E8.52928
G1 X28.374 Y54.806 E8.58945
G1 X27.769 Y54.397 E8.60767
G1 X25.925 Y52.876 E8.6673
G1 X25.412 Y52.364 E8.68538
G1 X23.892 Y50.522 E8.74495
G1 X23.483 Y49.915 E8.76321
G1 X22.333 Y47.795 E8.82337
G1 X22.044 Y47.111 E8.84189
G1 X21.318 Y44.775 E8.90292
G1 X21.166 Y44.028 E8.92193
G1 X20.913 Y41.516 E8.98491
G1 X20.894 Y41.135 E8.99443
G1 X20.894 Y24.698 E9.40445
G1 X20.913 Y24.318 E9.41394
G1 X21.166 Y21.803 E9.47699
G1 X21.318 Y21.055 E9.49603
G1 X22.044 Y18.72 E9.55703
G1 X22.333 Y18.036 E9.57555
G1 X23.483 Y15.916 E9.63572
G0 F2400 X23.834 Y16.107
G1 F3000 X24.201 Y15.564 E9.65207
G1 X25.721 Y13.722 E9.71164
G1 X26.18 Y13.263 E9.72783
G1 X28.024 Y11.742 E9.78746
G1 X28.565 Y11.377 E9.80374
G1 X30.685 Y10.226 E9.86391
G1 X31.299 Y9.967 E9.88054
G1 X33.634 Y9.242 E9.94153
G1 X34.302 Y9.106 E9.95853
G1 X36.816 Y8.853 E10.02156
G1 X37.156 Y8.836 E10.03005
G1 X162.844 Y8.836 E13.16535
G1 X163.185 Y8.853 E13.17387
G1 X165.698 Y9.106 E13.23687
G1 X166.365 Y9.242 E13.25385
G1 X168.701 Y9.967 E13.31487
G1 X169.315 Y10.226 E13.33149
G1 X171.435 Y11.377 E13.39167
G1 X171.976 Y11.742 E13.40795
G1 X173.818 Y13.261 E13.4675
G1 X174.277 Y13.72 E13.4837
G1 X175.799 Y15.564 E13.54334
G1 X176.166 Y16.107 E13.55969
G1 X177.316 Y18.227 E13.61985
G1 X177.574 Y18.839 E13.63642
G1 X178.3 Y21.174 E13.69742
G1 X178.436 Y21.842 E13.71442
G1 X178.689 Y24.355 E13.77743
G1 X178.706 Y24.696 E13.78594
G1 X178.706 Y41.133 E14.19596
G1 X178.689 Y41.473 E14.20446
G1 X178.436 Y43.987 E14.26749
G1 X178.3 Y44.656 E14.28452
G1 X177.574 Y46.992 E14.34554
G1 X177.316 Y47.604 E14.3621
G1 X176.166 Y49.724 E14.42227
G1 X175.799 Y50.267 E14.43862
G1 X174.279 Y52.109 E14.49819
G1 X173.82 Y52.568 E14.51438
G1 X171.976 Y54.089 E14.57401
G1 X171.435 Y54.454 E14.59029
G1 X169.315 Y55.605 E14.65046
G1 X168.701 Y55.864 E14.66709
G1 X166.365 Y56.589 E14.7281
G1 X165.698 Y56.725 E14.74508
G1 X163.185 Y56.978 E14.80809
G1 X162.844 Y56.995 E14.8166
G1 X37.156 Y56.995 E17.9519
G1 X36.816 Y56.978 E17.96039
G1 X34.302 Y56.725 E18.02342
G1 X33.634 Y56.589 E18.04043
G1 X31.299 Y55.864 E18.10142
G1 X30.685 Y55.605 E18.11804
G1 X28.565 Y54.454 E18.17822
G1 X28.024 Y54.089 E18.1945
G1 X26.18 Y52.568 E18.25412
G1 X25.721 Y52.109 E18.27032
G1 X24.201 Y50.267 E18.32989
G1 X23.834 Y49.724 E18.34624
G1 X22.684 Y47.604 E18.4064
G1 X22.426 Y46.992 E18.42297
G1 X21.7 Y44.656 E18.48399
G1 X21.564 Y43.988 E18.50099
G1 X21.311 Y41.476 E18.56397
G1 X21.294 Y41.135 E18.57249
G1 X21.294 Y24.698 E18.98251
G1 X21.311 Y24.358 E18.99101
G1 X21.564 Y21.843 E19.05406
G1 X21.7 Y21.174 E19.07109
G1 X22.426 Y18.839 E19.13209
G1 X22.684 Y18.227 E19.14865
G1 X23.834 Y16.107 E19.20882
G0 F2400 X24.186 Y16.298
G1 F3000 X24.509 Y15.819 E19.22323
G1 X26.029 Y13.977 E19.2828
G1 X26.434 Y13.572 E19.29709
G1 X28.278 Y12.051 E19.35672
G1 X28.756 Y11.729 E19.37109
G1 X30.876 Y10.578 E19.43127
G1 X31.417 Y10.349 E19.44592
G1 X33.752 Y9.624 E19.50691
G1 X34.342 Y9.504 E19.52193
G1 X36.856 Y9.251 E19.58496
G1 X37.156 Y9.236 E19.59245
G1 X162.844 Y9.236 E22.72775
G1 X163.145 Y9.251 E22.73527
G1 X165.658 Y9.504 E22.79827
G1 X166.246 Y9.624 E22.81324
G1 X168.582 Y10.349 E22.87426
G1 X169.124 Y10.578 E22.88894
G1 X171.244 Y11.729 E22.94911
G1 X171.722 Y12.05 E22.96347
G1 X173.564 Y13.569 E23.02303
G1 X173.969 Y13.974 E23.03732
G1 X175.491 Y15.818 E23.09696
G1 X175.814 Y16.298 E23.11139
G1 X176.964 Y18.418 E23.17156
G1 X177.192 Y18.957 E23.18616
G1 X177.918 Y21.292 E23.24715
G1 X178.038 Y21.882 E23.26217
G1 X178.291 Y24.395 E23.32518
G1 X178.306 Y24.696 E23.33269
G1 X178.306 Y41.133 E23.74272
G1 X178.291 Y41.433 E23.75021
G1 X178.038 Y43.947 E23.81324
G1 X177.918 Y44.537 E23.82826
G1 X177.192 Y46.873 E23.88928
G1 X176.964 Y47.413 E23.9039
G1 X175.814 Y49.533 E23.96406
G1 X175.491 Y50.012 E23.97848
G1 X173.971 Y51.854 E24.03805
G1 X173.566 Y52.259 E24.05234
G1 X171.722 Y53.78 E24.11196
G1 X171.244 Y54.102 E24.12634
G1 X169.124 Y55.253 E24.18652
G1 X168.582 Y55.482 E24.20119
G1 X166.246 Y56.207 E24.26221
G1 X165.658 Y56.327 E24.27718
G1 X163.145 Y56.58 E24.34018
G1 X162.844 Y56.595 E24.3477
G1 X37.156 Y56.595 E27.483
G1 X36.856 Y56.58 E27.49049
G1 X34.342 Y56.327 E27.55352
G1 X33.752 Y56.207 E27.56854
G1 X31.417 Y55.482 E27.62953
G1 X30.876 Y55.253 E27.64418
G1 X28.756 Y54.102 E27.70436
G1 X28.278 Y53.78 E27.71874
G1 X26.434 Y52.259 E27.77836
G1 X26.029 Y51.854 E27.79265
G1 X24.509 Y50.012 E27.85222
G1 X24.186 Y49.533 E27.86663
G1 X23.036 Y47.413 E27.9268
G1 X22.808 Y46.873 E27.94142
G1 X22.082 Y44.537 E28.00244
G1 X21.962 Y43.948 E28.01744
G1 X21.709 Y41.436 E28.08041
G1 X21.694 Y41.135 E28.08793
G1 X21.694 Y24.698 E28.49796
G1 X21.709 Y24.398 E28.50545
G1 X21.962 Y21.883 E28.5685
G1 X22.082 Y21.292 E28.58354
G1 X22.808 Y18.957 E28.64454
G1 X23.036 Y18.418 E28.65914
G1 X24.186 Y16.298 E28.7193
G0 F2400 X24.538 Y16.488
G1 F3000 X24.818 Y16.073 E28.73179
G1 X26.338 Y14.231 E28.79137
G1 X26.689 Y13.88 E28.80375
G1 X28.533 Y12.359 E28.86338
G1 X28.946 Y12.08 E28.87581
G1 X31.066 Y10.929 E28.93598
G1 X31.536 Y10.731 E28.94871
G1 X33.871 Y10.006 E29.0097
G1 X34.382 Y9.902 E29.0227
G1 X36.896 Y9.649 E29.08573
G1 X37.156 Y9.636 E29.09223
G1 X162.844 Y9.636 E32.22753
G1 X163.104 Y9.649 E32.23402
G1 X165.617 Y9.902 E32.29702
G1 X166.128 Y10.006 E32.31003
G1 X168.464 Y10.731 E32.37105
G1 X168.934 Y10.929 E32.38377
G1 X171.054 Y12.08 E32.44394
G1 X171.467 Y12.359 E32.45638
G1 X173.309 Y13.878 E32.51593
G1 X173.66 Y14.229 E32.52832
G1 X175.182 Y16.073 E32.58796
G1 X175.462 Y16.488 E32.60045
G1 X176.612 Y18.608 E32.66061
G1 X176.81 Y19.076 E32.67329
G1 X177.536 Y21.411 E32.73428
G1 X177.64 Y21.923 E32.74732
G1 X177.893 Y24.436 E32.81032
G1 X177.906 Y24.696 E32.81681
G1 X177.906 Y41.133 E33.22684
G1 X177.893 Y41.393 E33.23333
G1 X177.64 Y43.907 E33.29636
G1 X177.536 Y44.419 E33.30939
G1 X176.81 Y46.755 E33.37041
G1 X176.612 Y47.223 E33.38309
G1 X175.462 Y49.343 E33.44325
G1 X175.182 Y49.758 E33.45574
G1 X173.662 Y51.6 E33.51531
G1 X173.311 Y51.951 E33.5277
G1 X171.467 Y53.472 E33.58732
G1 X171.054 Y53.751 E33.59976
G1 X168.934 Y54.902 E33.65993
G1 X168.464 Y55.1 E33.67265
G1 X166.128 Y55.825 E33.73367
G1 X165.617 Y55.929 E33.74668
G1 X163.104 Y56.182 E33.80968
G1 X162.844 Y56.195 E33.81617
G1 X37.156 Y56.195 E36.95147
G1 X36.896 Y56.182 E36.95797
G1 X34.382 Y55.929 E37.021
G1 X33.871 Y55.825 E37.034
G1 X31.536 Y55.1 E37.09499
G1 X31.066 Y54.902 E37.10772
G1 X28.946 Y53.751 E37.16789
G1 X28.533 Y53.472 E37.18032
G1 X26.689 Y51.951 E37.23995
G1 X26.338 Y51.6 E37.25233
G1 X24.818 Y49.758 E37.31191
G1 X24.538 Y49.343 E37.3244
G1 X23.388 Y47.223 E37.38456
G1 X23.19 Y46.755 E37.39724
G1 X22.464 Y44.419 E37.45826
G1 X22.36 Y43.908 E37.47126
G1 X22.107 Y41.396 E37.53424
G1 X22.094 Y41.135 E37.54076
G1 X22.094 Y24.698 E37.95079
G1 X22.107 Y24.438 E37.95728
G1 X22.36 Y21.923 E38.02033
G1 X22.464 Y21.411 E38.03337
G1 X23.19 Y19.076 E38.09436
G1 X23.388 Y18.608 E38.10704
G1 X24.538 Y16.488 E38.1672
G0 F2400 X24.889 Y16.679
G1 F3000 X25.126 Y16.328 E38.17777
G1 X26.646 Y14.486 E38.23734
G1 X26.943 Y14.189 E38.24782
G1 X28.787 Y12.668 E38.30744
G1 X29.137 Y12.432 E38.31797
G1 X31.257 Y11.281 E38.37815
G1 X31.655 Y11.113 E38.38893
G1 X33.99 Y10.388 E38.44992
G1 X34.422 Y10.3 E38.46091
G1 X36.936 Y10.047 E38.52394
G1 X37.156 Y10.036 E38.52944
G1 X162.844 Y10.036 E41.66474
G1 X163.064 Y10.047 E41.67023
G1 X165.577 Y10.3 E41.73324
G1 X166.009 Y10.388 E41.74423
G1 X168.345 Y11.113 E41.80525
G1 X168.743 Y11.281 E41.81602
G1 X170.863 Y12.432 E41.8762
G1 X171.213 Y12.668 E41.88673
G1 X173.055 Y14.187 E41.94629
G1 X173.352 Y14.484 E41.95676
G1 X174.874 Y16.328 E42.01641
G1 X175.111 Y16.679 E42.02697
G1 X176.261 Y18.799 E42.08714
G1 X176.428 Y19.195 E42.09786
G1 X177.154 Y21.53 E42.15885
G1 X177.242 Y21.963 E42.16988
G1 X177.495 Y24.476 E42.23288
G1 X177.506 Y24.696 E42.23837
G1 X177.506 Y41.133 E42.6484
G1 X177.495 Y41.353 E42.65389
G1 X177.242 Y43.867 E42.71692
G1 X177.154 Y44.3 E42.72794
G1 X176.428 Y46.636 E42.78896
G1 X176.261 Y47.032 E42.79968
G1 X175.111 Y49.152 E42.85985
G1 X174.874 Y49.503 E42.87041
G1 X173.354 Y51.345 E42.92999
G1 X173.057 Y51.642 E42.94046
G1 X171.213 Y53.163 E43.00009
G1 X170.863 Y53.399 E43.01062
G1 X168.743 Y54.55 E43.0708
G1 X168.345 Y54.718 E43.08157
G1 X166.009 Y55.443 E43.14259
G1 X165.577 Y55.531 E43.15358
G1 X163.064 Y55.784 E43.21659
G1 X162.844 Y55.795 E43.22208
G1 X37.156 Y55.795 E46.35738
G1 X36.936 Y55.784 E46.36288
G1 X34.422 Y55.531 E46.42591
G1 X33.99 Y55.443 E46.4369
G1 X31.655 Y54.718 E46.49789
G1 X31.257 Y54.55 E46.50867
G1 X29.137 Y53.399 E46.56884
G1 X28.787 Y53.163 E46.57937
G1 X26.943 Y51.642 E46.639
G1 X26.646 Y51.345 E46.64948
G1 X25.126 Y49.503 E46.70905
G1 X24.889 Y49.152 E46.71962
G1 X23.739 Y47.032 E46.77978
G1 X23.572 Y46.636 E46.7905
G1 X22.846 Y44.3 E46.85152
G1 X22.758 Y43.867 E46.86254
G1 X22.505 Y41.355 E46.92552
G1 X22.494 Y41.135 E46.93102
G1 X22.494 Y24.698 E47.34104
G1 X22.505 Y24.478 E47.34654
G1 X22.758 Y21.963 E47.40959
G1 X22.846 Y21.53 E47.42061
G1 X23.572 Y19.195 E47.48161
G1 X23.739 Y18.799 E47.49233
G1 X24.889 Y16.679 E47.55249
G0 F2400 X25.241 Y16.87
G1 F3000 X25.435 Y16.582 E47.56115
G1 X26.955 Y14.74 E47.62073
G1 X27.198 Y14.497 E47.6293
G1 X29.042 Y12.976 E47.68893
G1 X29.328 Y12.783 E47.69753
G1 X31.448 Y11.632 E47.75771
G1 X31.773 Y11.495 E47.76651
G1 X34.108 Y10.77 E47.8275
G1 X34.462 Y10.698 E47.83651
G1 X36.976 Y10.445 E47.89954
G1 X37.156 Y10.436 E47.90403
G1 X162.844 Y10.436 E51.03933
G1 X163.024 Y10.445 E51.04383
G1 X165.537 Y10.698 E51.10683
G1 X165.891 Y10.77 E51.11584
G1 X168.227 Y11.495 E51.17686
G1 X168.552 Y11.632 E51.18566
G1 X170.672 Y12.783 E51.24583
G1 X170.958 Y12.976 E51.25444
G1 X172.8 Y14.495 E51.314
G1 X173.043 Y14.738 E51.32257
G1 X174.565 Y16.582 E51.38221
G1 X174.759 Y16.87 E51.39087
G1 X175.909 Y18.99 E51.45104
G1 X176.046 Y19.314 E51.45981
G1 X176.772 Y21.649 E51.52081
G1 X176.844 Y22.003 E51.52982
G1 X177.097 Y24.516 E51.59282
G1 X177.106 Y24.696 E51.59732
G1 X177.106 Y41.133 E52.00734
G1 X177.097 Y41.313 E52.01184
G1 X176.844 Y43.827 E52.07487
G1 X176.772 Y44.181 E52.08388
G1 X176.046 Y46.517 E52.1449
G1 X175.909 Y46.841 E52.15367
G1 X174.759 Y48.961 E52.21384
G1 X174.565 Y49.249 E52.2225
G1 X173.045 Y51.091 E52.28207
G1 X172.802 Y51.334 E52.29065
G1 X170.958 Y52.855 E52.35027
G1 X170.672 Y53.048 E52.35888
G1 X168.552 Y54.199 E52.41906
G1 X168.227 Y54.336 E52.42785
G1 X165.891 Y55.061 E52.48887
G1 X165.537 Y55.133 E52.49788
G1 X163.024 Y55.386 E52.56088
G1 X162.844 Y55.395 E52.56538
G1 X37.156 Y55.395 E55.70068
G1 X36.976 Y55.386 E55.70517
G1 X34.462 Y55.133 E55.7682
G1 X34.108 Y55.061 E55.77721
G1 X31.773 Y54.336 E55.8382
G1 X31.448 Y54.199 E55.847
G1 X29.328 Y53.048 E55.90718
G1 X29.042 Y52.855 E55.91578
G1 X27.198 Y51.334 E55.97541
G1 X26.955 Y51.091 E55.98398
G1 X25.435 Y49.249 E56.04356
G1 X25.241 Y48.961 E56.05222
G1 X24.091 Y46.841 E56.11238
G1 X23.954 Y46.517 E56.12116
G1 X23.228 Y44.181 E56.18218
G1 X23.156 Y43.827 E56.19119
G1 X22.903 Y41.315 E56.25417
G1 X22.894 Y41.135 E56.25866
G1 X22.894 Y24.698 E56.66869
G1 X22.903 Y24.518 E56.67318
G1 X23.156 Y22.003 E56.73624
G1 X23.228 Y21.649 E56.74525
G1 X23.954 Y19.314 E56.80624
G1 X24.091 Y18.99 E56.81502
G1 X25.241 Y16.87 E56.87518
G0 F2400 X25.592 Y17.06
G1 F3000 X25.743 Y16.837 E56.8819
G1 X27.263 Y14.995 E56.94147
G1 X27.452 Y14.806 E56.94814
G1 X29.296 Y13.285 E57.00777
G1 X29.519 Y13.135 E57.01447
G1 X31.639 Y11.984 E57.07465
G1 X31.892 Y11.877 E57.0815
G1 X34.227 Y11.152 E57.14249
G1 X34.502 Y11.096 E57.14949
G1 X37.016 Y10.843 E57.21252
G1 X37.156 Y10.836 E57.21602
G1 X162.844 Y10.836 E60.35132
G1 X162.984 Y10.843 E60.35481
G1 X165.497 Y11.096 E60.41782
G1 X165.772 Y11.152 E60.42482
G1 X168.108 Y11.877 E60.48583
G1 X168.361 Y11.984 E60.49268
G1 X170.481 Y13.135 E60.55286
G1 X170.704 Y13.285 E60.55956
G1 X172.546 Y14.804 E60.61912
G1 X172.735 Y14.993 E60.62579
G1 X174.257 Y16.837 E60.68543
G1 X174.408 Y17.06 E60.69215
G1 X175.558 Y19.18 E60.75231
G1 X175.664 Y19.432 E60.75913
G1 X176.39 Y21.767 E60.82013
G1 X176.446 Y22.043 E60.82715
G1 X176.699 Y24.556 E60.89016
G1 X176.706 Y24.696 E60.89366
G1 X176.706 Y41.133 E61.30368
G1 X176.699 Y41.273 E61.30717
G1 X176.446 Y43.787 E61.3702
G1 X176.39 Y44.062 E61.3772
G1 X175.664 Y46.398 E61.43823
G1 X175.558 Y46.651 E61.44507
G1 X174.408 Y48.771 E61.50523
G1 X174.257 Y48.994 E61.51195
G1 X172.737 Y50.836 E61.57152
G1 X172.548 Y51.025 E61.57819
G1 X170.704 Y52.546 E61.63782
G1 X170.481 Y52.696 E61.64452
G1 X168.361 Y53.847 E61.7047
G1 X168.108 Y53.954 E61.71155
G1 X165.772 Y54.679 E61.77256
G1 X165.497 Y54.735 E61.77956
G1 X162.984 Y54.988 E61.84257
G1 X162.844 Y54.995 E61.84606
G1 X37.156 Y54.995 E64.98136
G1 X37.016 Y54.988 E64.98486
G1 X34.502 Y54.735 E65.04789
G1 X34.227 Y54.679 E65.05489
G1 X31.892 Y53.954 E65.11588
G1 X31.639 Y53.847 E65.12273
G1 X29.519 Y52.696 E65.18291
G1 X29.296 Y52.546 E65.18961
G1 X27.452 Y51.025 E65.24924
G1 X27.263 Y50.836 E65.25591
G1 X25.743 Y48.994 E65.31548
G1 X25.592 Y48.771 E65.3222
G1 X24.442 Y46.651 E65.38236
G1 X24.336 Y46.398 E65.3892
G1 X23.61 Y44.062 E65.45022
G1 X23.554 Y43.787 E65.45723
G1 X23.301 Y41.275 E65.5202
G1 X23.294 Y41.135 E65.5237
G1 X23.294 Y24.698 E65.93372
G1 X23.301 Y24.558 E65.93722
G1 X23.554 Y22.043 E66.00027
G1 X23.61 Y21.767 E66.0073
G1 X24.336 Y19.432 E66.0683
G1 X24.442 Y19.18 E66.07512
G1 X25.592 Y17.06 E66.13528
G0 F2400 X25.944 Y17.251
G1 F3000 X26.052 Y17.092 E66.14007
G1 X27.572 Y15.25 E66.19965
G1 X27.707 Y15.115 E66.20441
G1 X29.551 Y13.594 E66.26404
G1 X29.71 Y13.486 E66.26883
G1 X31.83 Y12.335 E66.32901
G1 X32.01 Y12.259 E66.33388
G1 X34.345 Y11.534 E66.39487
G1 X34.542 Y11.494 E66.39989
G1 X37.056 Y11.241 E66.46291
G1 X37.156 Y11.236 E66.46541
G1 X162.844 Y11.236 E69.60071
G1 X162.944 Y11.241 E69.60321
G1 X165.457 Y11.494 E69.66621
G1 X165.653 Y11.534 E69.6712
G1 X167.989 Y12.259 E69.73222
G1 X168.17 Y12.335 E69.73711
G1 X170.29 Y13.486 E69.79729
G1 X170.449 Y13.593 E69.80207
G1 X172.291 Y15.112 E69.86163
G1 X172.426 Y15.247 E69.86639
G1 X173.948 Y17.091 E69.92603
G1 X174.056 Y17.251 E69.93085
G1 X175.206 Y19.371 E69.99101
G1 X175.282 Y19.551 E69.99589
G1 X176.008 Y21.886 E70.05688
G1 X176.048 Y22.083 E70.0619
